; generated by PrusaSlicer 2.7.1+win64 on 2024-01-16 at 00:28:50 UTC

; 

; external perimeters extrusion width = 0.42mm
; perimeters extrusion width = 0.44mm
; infill extrusion width = 0.44mm
; solid infill extrusion width = 0.44mm
; top infill extrusion width = 0.40mm
; first layer extrusion width = 0.42mm

M201 X500 Y500 Z100 E5000 ; sets maximum accelerations, mm/sec^2
M203 X500 Y500 Z10 E60 ; sets maximum feedrates, mm / sec
M204 S500 T1000 ; sets acceleration (S) and retract acceleration (R), mm/sec^2
M205 X8.00 Y8.00 Z0.40 E5.00 ; sets the jerk limits, mm/sec
M205 S0 T0 ; sets the minimum extruding and travel feed rate, mm/sec

; printing object DiceGame_Tray id:0 copy 0
; stop printing object DiceGame_Tray id:0 copy 0

;TYPE:Custom
G90 ; use absolute coordinates
M83 ; extruder relative mode
M104 S150 ; set temporary nozzle temp to prevent oozing during homing
M140 S60 ; set final bed temp
G4 S30 ; allow partial nozzle warmup
G28 ; home all axis and restore leveling
G1 Z50 F240
G1 X2.0 Y10 F3000
M104 S210 ; set final nozzle temp
M190 S60 ; wait for bed temp to stabilize
M109 S210 ; wait for nozzle temp to stabilize
G1 Z0.28 F240
G92 E0
G1 X2.0 Y140 E10 F1500 ; prime the nozzle
G1 X2.3 Y140 F5000
G92 E0
G1 X2.3 Y10 E10 F1200 ; prime the nozzle
G92 E0
G21 ; set units to millimeters
G90 ; use absolute coordinates
M83 ; use relative distances for extrusion
; Filament gcode
M107
;LAYER_CHANGE
;Z:0.2
;HEIGHT:0.2
;BEFORE_LAYER_CHANGE
G92 E0
;0.2


G1 E-.8 F1800
G1 Z.2 F9000
;AFTER_LAYER_CHANGE
;0.2
; printing object DiceGame_Tray id:0 copy 0
G1 X212.787 Y118.661
G1 Z.2
G1 E.8 F1800
M204 S500
;TYPE:Perimeter
;WIDTH:0.419999
G1 F1200
G1 X212.879 Y118.687 E.003
G1 X214.313 Y118.687 E.04496
G1 X214.313 Y120.121 E.04496
G1 X214.313 Y194.715 E2.33884
G1 X194.715 Y214.313 E.86901
G1 X25.285 Y214.313 E5.31235
G1 X5.687 Y194.715 E.86901
G1 X5.687 Y25.285 E5.31235
G1 X25.285 Y5.687 E.86901
G1 X194.715 Y5.687 E5.31235
G1 X214.313 Y25.285 E.86901
G1 X214.313 Y101.313 E2.3838
G1 X212.879 Y101.313 E.04496
G1 X212.698 Y101.342 E.00575
G1 X212.51 Y101.449 E.00678
G1 X212.375 Y101.62 E.00683
G1 X212.313 Y101.879 E.00835
G1 X212.313 Y118.126 E.50941
G1 X212.388 Y118.404 E.00903
G1 X212.583 Y118.604 E.00876
G1 X212.729 Y118.645 E.00475
G1 X212.879 Y118.31 F9000
;TYPE:External perimeter
G1 F1200
G1 X214.69 Y118.31 E.05678
G1 X214.69 Y120.121 E.05678
G1 X214.69 Y194.872 E2.34376
G1 X194.872 Y214.69 E.87876
G1 X25.128 Y214.69 E5.32219
G1 X5.31 Y194.872 E.87876
G1 X5.31 Y25.128 E5.32219
G1 X25.128 Y5.31 E.87876
G1 X194.872 Y5.31 E5.32219
G1 X214.69 Y25.128 E.87876
G1 X214.69 Y101.69 E2.40054
G1 X212.879 Y101.69 E.05678
G1 X212.756 Y101.735 E.00411
G1 X212.69 Y101.875 E.00485
G1 X212.69 Y118.121 E.50938
G1 X212.729 Y118.236 E.00381
G1 X212.825 Y118.283 E.00335
;WIPE_START
G1 F7200
G1 X212.879 Y118.31 E-.01434
G1 X214.69 Y118.31 E-.43011
G1 X214.69 Y119.807 E-.35555
;WIPE_END
G1 X214.192 Y25.575 F9000
G1 E.8 F1800
;TYPE:Solid infill
;WIDTH:0.420212
G1 F1200
G1 X194.595 Y5.977 E.86948
G1 X194.061 Y5.977 E.01675
G1 X214.023 Y25.939 E.88565
G1 X214.023 Y26.472 E.01672
G1 X193.528 Y5.977 E.90929
G1 X192.994 Y5.977 E.01675
G1 X214.023 Y27.006 E.93299
G1 X214.023 Y27.539 E.01672
G1 X192.461 Y5.977 E.95663
G1 X191.927 Y5.977 E.01675
G1 X214.023 Y28.073 E.98033
G1 X214.023 Y28.607 E.01675
G1 X191.393 Y5.977 E1.00402
G1 X190.86 Y5.977 E.01672
G1 X214.023 Y29.14 E1.02766
G1 X214.023 Y29.674 E.01675
G1 X190.326 Y5.977 E1.05136
G1 X189.793 Y5.977 E.01672
G1 X214.023 Y30.207 E1.075
G1 X214.023 Y30.741 E.01675
G1 X189.259 Y5.977 E1.0987
G1 X188.726 Y5.977 E.01672
G1 X214.023 Y31.274 E1.12234
G1 X214.023 Y31.808 E.01675
G1 X188.192 Y5.977 E1.14603
G1 X187.658 Y5.977 E.01675
G1 X214.023 Y32.342 E1.16973
G1 X214.023 Y32.875 E.01672
G1 X187.125 Y5.977 E1.19337
G1 X186.591 Y5.977 E.01675
G1 X214.023 Y33.409 E1.21707
G1 X214.023 Y33.942 E.01672
G1 X186.058 Y5.977 E1.24071
G1 X185.524 Y5.977 E.01675
G1 X214.023 Y34.476 E1.26441
G1 X214.023 Y35.009 E.01672
G1 X184.991 Y5.977 E1.28805
G1 X184.457 Y5.977 E.01675
G1 X214.023 Y35.543 E1.31174
G1 X214.023 Y36.077 E.01675
G1 X183.923 Y5.977 E1.33544
G1 X183.39 Y5.977 E.01672
G1 X214.023 Y36.61 E1.35908
G1 X214.023 Y37.144 E.01675
G1 X182.856 Y5.977 E1.38278
G1 X182.323 Y5.977 E.01672
G1 X214.023 Y37.677 E1.40642
G1 X214.023 Y38.211 E.01675
G1 X181.789 Y5.977 E1.43011
G1 X181.256 Y5.977 E.01672
G1 X214.023 Y38.744 E1.45376
G1 X214.023 Y39.278 E.01675
G1 X180.722 Y5.977 E1.47745
G1 X180.188 Y5.977 E.01675
G1 X214.023 Y39.812 E1.50115
G1 X214.023 Y40.345 E.01672
G1 X179.655 Y5.977 E1.52479
G1 X179.121 Y5.977 E.01675
G1 X214.023 Y40.879 E1.54848
G1 X214.023 Y41.412 E.01672
G1 X178.588 Y5.977 E1.57213
G1 X178.054 Y5.977 E.01675
G1 X214.023 Y41.946 E1.59582
G1 X214.023 Y42.479 E.01672
G1 X177.521 Y5.977 E1.61947
G1 X176.987 Y5.977 E.01675
G1 X214.023 Y43.013 E1.64316
G1 X214.023 Y43.547 E.01675
G1 X176.453 Y5.977 E1.66686
G1 X175.92 Y5.977 E.01672
G1 X214.023 Y44.08 E1.6905
G1 X214.023 Y44.614 E.01675
G1 X175.386 Y5.977 E1.71419
G1 X174.853 Y5.977 E.01672
G1 X214.023 Y45.147 E1.73784
G1 X214.023 Y45.681 E.01675
G1 X174.319 Y5.977 E1.76153
G1 X173.786 Y5.977 E.01672
G1 X214.023 Y46.214 E1.78518
G1 X214.023 Y46.748 E.01675
G1 X173.252 Y5.977 E1.80887
G1 X172.718 Y5.977 E.01675
G1 X214.023 Y47.282 E1.83256
G1 X214.023 Y47.815 E.01672
G1 X172.185 Y5.977 E1.85621
G1 X171.651 Y5.977 E.01675
G1 X214.023 Y48.349 E1.8799
G1 X214.023 Y48.882 E.01672
G1 X171.118 Y5.977 E1.90355
G1 X170.584 Y5.977 E.01675
G1 X214.023 Y49.416 E1.92724
G1 X214.023 Y49.949 E.01672
G1 X170.051 Y5.977 E1.95089
G1 X169.517 Y5.977 E.01675
G1 X214.023 Y50.483 E1.97458
G1 X214.023 Y51.017 E.01675
G1 X168.983 Y5.977 E1.99827
G1 X168.45 Y5.977 E.01672
G1 X214.023 Y51.55 E2.02192
G1 X214.023 Y52.084 E.01675
G1 X167.916 Y5.977 E2.04561
G1 X167.383 Y5.977 E.01672
G1 X214.023 Y52.617 E2.06926
G1 X214.023 Y53.151 E.01675
G1 X166.849 Y5.977 E2.09295
G1 X166.316 Y5.977 E.01672
G1 X214.023 Y53.684 E2.1166
G1 X214.023 Y54.218 E.01675
G1 X165.782 Y5.977 E2.14029
G1 X165.248 Y5.977 E.01675
G1 X214.023 Y54.752 E2.16398
G1 X214.023 Y55.285 E.01672
G1 X164.715 Y5.977 E2.18763
G1 X164.181 Y5.977 E.01675
G1 X214.023 Y55.819 E2.21132
G1 X214.023 Y56.352 E.01672
G1 X163.648 Y5.977 E2.23497
G1 X163.114 Y5.977 E.01675
G1 X214.023 Y56.886 E2.25866
G1 X214.023 Y57.419 E.01672
G1 X162.581 Y5.977 E2.28231
G1 X162.047 Y5.977 E.01675
G1 X214.023 Y57.953 E2.306
G1 X214.023 Y58.487 E.01675
G1 X161.513 Y5.977 E2.32969
G1 X160.98 Y5.977 E.01672
G1 X214.023 Y59.02 E2.35334
G1 X214.023 Y59.554 E.01675
G1 X160.446 Y5.977 E2.37703
G1 X159.913 Y5.977 E.01672
G1 X214.023 Y60.087 E2.40068
G1 X214.023 Y60.621 E.01675
G1 X159.379 Y5.977 E2.42437
G1 X158.846 Y5.977 E.01672
G1 X214.023 Y61.154 E2.44802
G1 X214.023 Y61.688 E.01675
G1 X158.312 Y5.977 E2.47171
G1 X157.778 Y5.977 E.01675
G1 X214.023 Y62.222 E2.4954
G1 X214.023 Y62.755 E.01672
G1 X157.245 Y5.977 E2.51905
G1 X156.711 Y5.977 E.01675
G1 X214.023 Y63.289 E2.54274
G1 X214.023 Y63.822 E.01672
G1 X156.178 Y5.977 E2.56639
G1 X155.644 Y5.977 E.01675
G1 X214.023 Y64.356 E2.59008
G1 X214.023 Y64.889 E.01672
G1 X155.111 Y5.977 E2.61373
G1 X154.577 Y5.977 E.01675
G1 X214.023 Y65.423 E2.63742
G1 X214.023 Y65.957 E.01675
G1 X154.043 Y5.977 E2.66111
G1 X153.51 Y5.977 E.01672
G1 X214.023 Y66.49 E2.68476
G1 X214.023 Y67.024 E.01675
G1 X152.976 Y5.977 E2.70845
G1 X152.443 Y5.977 E.01672
G1 X214.023 Y67.557 E2.7321
G1 X214.023 Y68.091 E.01675
G1 X151.909 Y5.977 E2.75579
G1 X151.376 Y5.977 E.01672
G1 X214.023 Y68.624 E2.77944
G1 X214.023 Y69.158 E.01675
G1 X150.842 Y5.977 E2.80313
G1 X150.308 Y5.977 E.01675
G1 X214.023 Y69.692 E2.82682
G1 X214.023 Y70.225 E.01672
G1 X149.775 Y5.977 E2.85047
G1 X149.241 Y5.977 E.01675
G1 X214.023 Y70.759 E2.87416
G1 X214.023 Y71.292 E.01672
G1 X148.708 Y5.977 E2.89781
G1 X148.174 Y5.977 E.01675
G1 X214.023 Y71.826 E2.9215
G1 X214.023 Y72.359 E.01672
G1 X147.641 Y5.977 E2.94515
G1 X147.107 Y5.977 E.01675
G1 X214.023 Y72.893 E2.96884
G1 X214.023 Y73.427 E.01675
G1 X146.573 Y5.977 E2.99253
G1 X146.04 Y5.977 E.01672
G1 X214.023 Y73.96 E3.01618
G1 X214.023 Y74.494 E.01675
G1 X145.506 Y5.977 E3.03987
G1 X144.973 Y5.977 E.01672
G1 X214.023 Y75.027 E3.06352
G1 X214.023 Y75.561 E.01675
G1 X144.439 Y5.977 E3.08721
G1 X143.906 Y5.977 E.01672
G1 X214.023 Y76.094 E3.11086
G1 X214.023 Y76.628 E.01675
G1 X143.372 Y5.977 E3.13455
G1 X142.838 Y5.977 E.01675
G1 X214.023 Y77.162 E3.15824
G1 X214.023 Y77.695 E.01672
G1 X142.305 Y5.977 E3.18189
G1 X141.771 Y5.977 E.01675
G1 X214.023 Y78.229 E3.20558
G1 X214.023 Y78.762 E.01672
G1 X141.238 Y5.977 E3.22923
G1 X140.704 Y5.977 E.01675
G1 X214.023 Y79.296 E3.25292
G1 X214.023 Y79.829 E.01672
G1 X140.171 Y5.977 E3.27657
G1 X139.637 Y5.977 E.01675
G1 X214.023 Y80.363 E3.30026
G1 X214.023 Y80.897 E.01675
G1 X139.103 Y5.977 E3.32395
G1 X138.57 Y5.977 E.01672
G1 X214.023 Y81.43 E3.3476
G1 X214.023 Y81.964 E.01675
G1 X138.036 Y5.977 E3.37129
G1 X137.503 Y5.977 E.01672
G1 X214.023 Y82.497 E3.39494
G1 X214.023 Y83.031 E.01675
G1 X136.969 Y5.977 E3.41863
G1 X136.436 Y5.977 E.01672
G1 X214.023 Y83.564 E3.44228
G1 X214.023 Y84.098 E.01675
G1 X135.902 Y5.977 E3.46597
G1 X135.368 Y5.977 E.01675
G1 X214.023 Y84.632 E3.48966
G1 X214.023 Y85.165 E.01672
G1 X134.835 Y5.977 E3.51331
G1 X134.301 Y5.977 E.01675
G1 X214.023 Y85.699 E3.537
G1 X214.023 Y86.232 E.01672
G1 X133.768 Y5.977 E3.56065
G1 X133.234 Y5.977 E.01675
G1 X214.023 Y86.766 E3.58434
G1 X214.023 Y87.299 E.01672
G1 X132.701 Y5.977 E3.60798
G1 X132.167 Y5.977 E.01675
G1 X214.023 Y87.833 E3.63168
G1 X214.023 Y88.367 E.01675
G1 X131.633 Y5.977 E3.65537
G1 X131.1 Y5.977 E.01672
G1 X214.023 Y88.9 E3.67902
G1 X214.023 Y89.434 E.01675
G1 X130.566 Y5.977 E3.70271
G1 X130.033 Y5.977 E.01672
G1 X214.023 Y89.967 E3.72636
G1 X214.023 Y90.501 E.01675
G1 X129.499 Y5.977 E3.75005
G1 X128.966 Y5.977 E.01672
G1 X214.023 Y91.034 E3.77369
G1 X214.023 Y91.568 E.01675
G1 X128.432 Y5.977 E3.79739
G1 X127.898 Y5.977 E.01675
G1 X214.023 Y92.102 E3.82108
G1 X214.023 Y92.635 E.01672
G1 X127.365 Y5.977 E3.84473
G1 X126.831 Y5.977 E.01675
G1 X214.023 Y93.169 E3.86842
G1 X214.023 Y93.702 E.01672
G1 X126.298 Y5.977 E3.89206
G1 X125.764 Y5.977 E.01675
G1 X214.023 Y94.236 E3.91576
G1 X214.023 Y94.769 E.01672
G1 X125.231 Y5.977 E3.9394
G1 X124.697 Y5.977 E.01675
G1 X214.023 Y95.303 E3.9631
G1 X214.023 Y95.837 E.01675
G1 X124.163 Y5.977 E3.98679
G1 X123.63 Y5.977 E.01672
G1 X214.023 Y96.37 E4.01043
G1 X214.023 Y96.904 E.01675
G1 X123.096 Y5.977 E4.03413
G1 X122.563 Y5.977 E.01672
G1 X214.023 Y97.437 E4.05777
G1 X214.023 Y97.971 E.01675
G1 X122.029 Y5.977 E4.08147
G1 X121.496 Y5.977 E.01672
G1 X214.023 Y98.504 E4.10511
G1 X214.023 Y99.038 E.01675
G1 X120.962 Y5.977 E4.1288
G1 X120.428 Y5.977 E.01675
G1 X214.023 Y99.572 E4.1525
G1 X214.023 Y100.105 E.01672
G1 X119.895 Y5.977 E4.17614
G1 X119.361 Y5.977 E.01675
G1 X214.023 Y100.639 E4.19984
G1 X214.023 Y101.023 E.01205
G1 X213.873 Y101.023 E.00471
G1 X118.828 Y5.977 E4.21685
G1 X118.294 Y5.977 E.01675
G1 X213.339 Y101.023 E4.21685
G1 X212.815 Y101.032 E.01644
G1 X117.761 Y5.977 E4.21725
G1 X117.227 Y5.977 E.01675
G1 X212.412 Y101.162 E4.22304
G1 X212.32 Y101.229 E.00357
G1 X212.196 Y101.361 E.00568
G1 X212.154 Y101.438 E.00275
G1 X116.693 Y5.977 E4.23528
G1 X116.16 Y5.977 E.01672
G1 X212.027 Y101.844 E4.2533
G1 X212.023 Y102.374 E.01663
G1 X115.626 Y5.977 E4.27681
G1 X115.093 Y5.977 E.01672
G1 X212.023 Y102.908 E4.30048
G1 X212.023 Y103.441 E.01672
G1 X114.559 Y5.977 E4.32415
G1 X114.026 Y5.977 E.01672
G1 X212.023 Y103.975 E4.34782
G1 X212.023 Y104.509 E.01675
G1 X113.492 Y5.977 E4.37151
G1 X112.958 Y5.977 E.01675
G1 X212.024 Y105.043 E4.39523
G1 X212.024 Y105.576 E.01672
G1 X112.425 Y5.977 E4.41887
G1 X111.891 Y5.977 E.01675
G1 X212.024 Y106.11 E4.44257
G1 X212.024 Y106.644 E.01675
G1 X111.358 Y5.977 E4.46624
G1 X110.824 Y5.977 E.01675
G1 X212.024 Y107.178 E4.48993
G1 X212.025 Y107.711 E.01672
G1 X110.291 Y5.977 E4.5136
G1 X109.757 Y5.977 E.01675
G1 X212.025 Y108.245 E4.53729
G1 X212.025 Y108.779 E.01675
G1 X109.223 Y5.977 E4.56098
G1 X108.69 Y5.977 E.01672
G1 X212.025 Y109.313 E4.58465
G1 X212.025 Y109.846 E.01672
G1 X108.156 Y5.977 E4.60832
G1 X107.623 Y5.977 E.01672
G1 X212.025 Y110.38 E4.63199
G1 X212.026 Y110.914 E.01675
G1 X107.089 Y5.977 E4.6557
G1 X106.556 Y5.977 E.01672
G1 X212.026 Y111.448 E4.67937
G1 X212.026 Y111.981 E.01672
G1 X106.022 Y5.977 E4.70304
G1 X105.488 Y5.977 E.01675
G1 X212.026 Y112.515 E4.72673
G1 X212.026 Y113.049 E.01675
G1 X104.955 Y5.977 E4.7504
G1 X104.421 Y5.977 E.01675
G1 X212.026 Y113.583 E4.7741
G1 X212.027 Y114.116 E.01672
G1 X103.888 Y5.977 E4.79777
G1 X103.354 Y5.977 E.01675
G1 X212.027 Y114.65 E4.82146
G1 X212.027 Y115.184 E.01675
G1 X102.821 Y5.977 E4.84513
G1 X102.287 Y5.977 E.01675
G1 X212.027 Y115.718 E4.86882
G1 X212.027 Y116.251 E.01672
G1 X101.753 Y5.977 E4.89249
G1 X101.22 Y5.977 E.01672
G1 X212.028 Y116.785 E4.91618
G1 X212.028 Y117.319 E.01675
G1 X100.686 Y5.977 E4.93987
G1 X100.153 Y5.977 E.01672
G1 X212.198 Y118.022 E4.97106
;WIPE_START
G1 F7200
G1 X209.816 Y115.64 E-.8
;WIPE_END
G1 X213.517 Y118.808 F9000
G1 E.8 F1800
G1 F1200
G1 X214.023 Y119.314 E.02245
G1 X214.023 Y119.847 E.01672
G1 X212.983 Y118.808 E.04612
;WIPE_START
G1 F7200
G1 X214.023 Y119.847 E-.34914
G1 X214.023 Y119.314 E-.12659
G1 X213.517 Y118.808 E-.16995
;WIPE_END
G1 E-.15432 F1800
G1 X214.192 Y120.55 F9000
G1 E.8 F1800
G1 F1200
G1 X99.619 Y5.977 E5.08322
G1 X99.086 Y5.977 E.01672
G1 X214.023 Y120.914 E5.09937
G1 X214.023 Y121.448 E.01675
G1 X98.552 Y5.977 E5.12306
G1 X98.018 Y5.977 E.01675
G1 X214.023 Y121.982 E5.14675
G1 X214.023 Y122.515 E.01672
G1 X97.485 Y5.977 E5.1704
G1 X96.951 Y5.977 E.01675
G1 X214.023 Y123.049 E5.19409
G1 X214.023 Y123.582 E.01672
G1 X96.418 Y5.977 E5.21774
G1 X95.884 Y5.977 E.01675
G1 X214.023 Y124.116 E5.24143
G1 X214.023 Y124.649 E.01672
G1 X95.351 Y5.977 E5.26508
G1 X94.817 Y5.977 E.01675
G1 X214.023 Y125.183 E5.28877
G1 X214.023 Y125.717 E.01675
G1 X94.283 Y5.977 E5.31246
G1 X93.75 Y5.977 E.01672
G1 X214.023 Y126.25 E5.33611
G1 X214.023 Y126.784 E.01675
G1 X93.216 Y5.977 E5.3598
G1 X92.683 Y5.977 E.01672
G1 X214.023 Y127.317 E5.38345
G1 X214.023 Y127.851 E.01675
G1 X92.149 Y5.977 E5.40714
G1 X91.616 Y5.977 E.01672
G1 X214.023 Y128.384 E5.43079
G1 X214.023 Y128.918 E.01675
G1 X91.082 Y5.977 E5.45448
G1 X90.548 Y5.977 E.01675
G1 X214.023 Y129.452 E5.47817
G1 X214.023 Y129.985 E.01672
G1 X90.015 Y5.977 E5.50182
G1 X89.481 Y5.977 E.01675
G1 X214.023 Y130.519 E5.52551
G1 X214.023 Y131.052 E.01672
G1 X88.948 Y5.977 E5.54916
G1 X88.414 Y5.977 E.01675
G1 X214.023 Y131.586 E5.57285
G1 X214.023 Y132.119 E.01672
G1 X87.881 Y5.977 E5.5965
G1 X87.347 Y5.977 E.01675
G1 X214.023 Y132.653 E5.62019
G1 X214.023 Y133.187 E.01675
G1 X86.813 Y5.977 E5.64388
G1 X86.28 Y5.977 E.01672
G1 X214.023 Y133.72 E5.66753
G1 X214.023 Y134.254 E.01675
G1 X85.746 Y5.977 E5.69122
G1 X85.213 Y5.977 E.01672
G1 X214.023 Y134.787 E5.71487
G1 X214.023 Y135.321 E.01675
G1 X84.679 Y5.977 E5.73856
G1 X84.146 Y5.977 E.01672
G1 X214.023 Y135.854 E5.76221
G1 X214.023 Y136.388 E.01675
G1 X83.612 Y5.977 E5.7859
G1 X83.078 Y5.977 E.01675
G1 X214.023 Y136.922 E5.80959
G1 X214.023 Y137.455 E.01672
G1 X82.545 Y5.977 E5.83324
G1 X82.011 Y5.977 E.01675
G1 X214.023 Y137.989 E5.85693
G1 X214.023 Y138.522 E.01672
G1 X81.478 Y5.977 E5.88058
G1 X80.944 Y5.977 E.01675
G1 X214.023 Y139.056 E5.90427
G1 X214.023 Y139.589 E.01672
G1 X80.411 Y5.977 E5.92792
G1 X79.877 Y5.977 E.01675
G1 X214.023 Y140.123 E5.95161
G1 X214.023 Y140.657 E.01675
G1 X79.343 Y5.977 E5.9753
G1 X78.81 Y5.977 E.01672
G1 X214.023 Y141.19 E5.99895
G1 X214.023 Y141.724 E.01675
G1 X78.276 Y5.977 E6.02264
G1 X77.743 Y5.977 E.01672
G1 X214.023 Y142.257 E6.04629
G1 X214.023 Y142.791 E.01675
G1 X77.209 Y5.977 E6.06998
G1 X76.676 Y5.977 E.01672
G1 X214.023 Y143.324 E6.09363
G1 X214.023 Y143.858 E.01675
G1 X76.142 Y5.977 E6.11732
G1 X75.608 Y5.977 E.01675
G1 X214.023 Y144.392 E6.14101
G1 X214.023 Y144.925 E.01672
G1 X75.075 Y5.977 E6.16466
G1 X74.541 Y5.977 E.01675
