; generated by PrusaSlicer 2.7.1+win64 on 2024-01-16 at 00:29:55 UTC

; 

; external perimeters extrusion width = 0.42mm
; perimeters extrusion width = 0.44mm
; infill extrusion width = 0.44mm
; solid infill extrusion width = 0.44mm
; top infill extrusion width = 0.40mm
; first layer extrusion width = 0.42mm

M201 X500 Y500 Z100 E5000 ; sets maximum accelerations, mm/sec^2
M203 X500 Y500 Z10 E60 ; sets maximum feedrates, mm / sec
M204 S500 T1000 ; sets acceleration (S) and retract acceleration (R), mm/sec^2
M205 X8.00 Y8.00 Z0.40 E5.00 ; sets the jerk limits, mm/sec
M205 S0 T0 ; sets the minimum extruding and travel feed rate, mm/sec

; printing object DiceGame_Lid id:0 copy 0
; stop printing object DiceGame_Lid id:0 copy 0

;TYPE:Custom
G90 ; use absolute coordinates
M83 ; extruder relative mode
M104 S150 ; set temporary nozzle temp to prevent oozing during homing
M140 S60 ; set final bed temp
G4 S30 ; allow partial nozzle warmup
G28 ; home all axis and restore leveling
G1 Z50 F240
G1 X2.0 Y10 F3000
M104 S210 ; set final nozzle temp
M190 S60 ; wait for bed temp to stabilize
M109 S210 ; wait for nozzle temp to stabilize
G1 Z0.28 F240
G92 E0
G1 X2.0 Y140 E10 F1500 ; prime the nozzle
G1 X2.3 Y140 F5000
G92 E0
G1 X2.3 Y10 E10 F1200 ; prime the nozzle
G92 E0
G21 ; set units to millimeters
G90 ; use absolute coordinates
M83 ; use relative distances for extrusion
; Filament gcode
M107
;LAYER_CHANGE
;Z:0.2
;HEIGHT:0.2
;BEFORE_LAYER_CHANGE
G92 E0
;0.2


G1 E-.8 F1800
G1 Z.2 F9000
;AFTER_LAYER_CHANGE
;0.2
; printing object DiceGame_Lid id:0 copy 0
G1 X194.2 Y115.58
G1 Z.2
G1 E.8 F1800
M204 S500
;TYPE:Perimeter
;WIDTH:0.419999
G1 F1200
G1 X194.084 Y115.704 E.00532
G1 X194.013 Y115.979 E.00891
G1 X194.014 Y119.053 E.09638
G1 X194.096 Y119.317 E.00867
G1 X194.3 Y119.514 E.00889
G1 X194.579 Y119.587 E.00904
G1 X214.013 Y119.587 E.60934
G1 X214.013 Y139.021 E.60934
G1 X214.013 Y194.343 E1.73458
G1 X194.943 Y213.413 E.84559
G1 X26.257 Y213.413 E5.28902
G1 X5.987 Y193.143 E.8988
G1 X5.987 Y26.857 E5.21377
G1 X26.257 Y6.587 E.8988
G1 X194.943 Y6.587 E5.28902
G1 X214.013 Y25.657 E.84559
G1 X214.013 Y100.413 E2.34392
G1 X194.536 Y100.415 E.61069
G1 X194.271 Y100.504 E.00876
G1 X194.083 Y100.705 E.00863
G1 X194.013 Y100.979 E.00887
G1 X194.016 Y104.084 E.09735
G1 X194.116 Y104.347 E.00882
G1 X194.319 Y104.524 E.00844
G1 X194.579 Y104.587 E.00839
G1 X214.013 Y104.587 E.60934
G1 X214.013 Y115.413 E.33944
G1 X194.529 Y115.415 E.61091
G1 X194.272 Y115.503 E.00852
G1 X194.241 Y115.537 E.00144
G1 X194.452 Y115.839 F9000
;TYPE:External perimeter
G1 F1200
G1 X194.39 Y115.979 E.0048
G1 X194.39 Y119.021 E.09538
G1 X194.436 Y119.145 E.00415
G1 X194.579 Y119.21 E.00493
G1 X214.39 Y119.21 E.62116
G1 X214.39 Y139.021 E.62116
G1 X214.39 Y194.499 E1.73947
G1 X195.099 Y213.79 E.85539
G1 X26.101 Y213.79 E5.2988
G1 X5.61 Y193.299 E.9086
G1 X5.61 Y26.701 E5.22355
G1 X26.101 Y6.21 E.9086
G1 X195.099 Y6.21 E5.2988
G1 X214.39 Y25.501 E.85539
G1 X214.39 Y100.79 E2.36063
G1 X194.579 Y100.79 E.62116
G1 X194.456 Y100.835 E.00411
G1 X194.39 Y100.979 E.00497
G1 X194.39 Y104.021 E.09538
G1 X194.436 Y104.145 E.00415
G1 X194.579 Y104.21 E.00493
G1 X214.39 Y104.21 E.62116
G1 X214.39 Y115.79 E.36308
G1 X194.579 Y115.79 E.62116
G1 X194.508 Y115.817 E.00238
;WIPE_START
G1 F7200
G1 X194.452 Y115.839 E-.01429
G1 X194.39 Y115.979 E-.03636
G1 X194.39 Y119.021 E-.72248
G1 X194.43 Y119.127 E-.02687
;WIPE_END
G1 X52.151 Y109.823 F9000
G1 E.8 F1800
;TYPE:Perimeter
G1 F1200
G1 X52.177 Y109.717 E.00342
G1 X81.157 Y59.524 E1.81724
G1 X81.366 Y59.33 E.00894
G1 X81.633 Y59.263 E.00863
G1 X139.567 Y59.263 E1.81648
G1 X139.834 Y59.33 E.00863
G1 X140.056 Y59.546 E.00971
G1 X169.023 Y109.717 E1.81644
G1 X169.098 Y109.969 E.00824
G1 X169.023 Y110.283 E.01012
G1 X140.056 Y160.454 E1.81644
G1 X139.861 Y160.654 E.00876
G1 X139.567 Y160.737 E.00958
G1 X81.633 Y160.737 E1.81648
G1 X81.366 Y160.67 E.00863
G1 X81.144 Y160.454 E.00971
G1 X52.177 Y110.283 E1.81644
G1 X52.102 Y110.019 E.00861
G1 X52.136 Y109.881 E.00446
G1 X52.506 Y109.907 F9000
;TYPE:External perimeter
G1 F1200
G1 X81.475 Y59.727 E1.81672
G1 X81.633 Y59.64 E.00566
G1 X139.567 Y59.64 E1.81648
G1 X139.712 Y59.709 E.00503
G1 X139.73 Y59.734 E.00097
G1 X168.696 Y109.906 E1.81645
G1 X168.711 Y110.063 E.00495
G1 X139.73 Y160.266 E1.81753
G1 X139.599 Y160.357 E.005
G1 X81.633 Y160.36 E1.81748
G1 X81.488 Y160.291 E.00503
G1 X81.47 Y160.266 E.00097
G1 X52.504 Y110.094 E1.81645
G1 X52.493 Y109.963 E.00412
;WIPE_START
G1 F7200
G1 X52.506 Y109.907 E-.01365
G1 X54.161 Y107.04 E-.78635
;WIPE_END
G1 X213.892 Y25.948 F9000
G1 E.8 F1800
;TYPE:Solid infill
;WIDTH:0.420335
G1 F1200
G1 X194.822 Y6.877 E.84637
G1 X194.288 Y6.877 E.01676
G1 X213.723 Y26.312 E.86255
G1 X213.723 Y26.845 E.01673
G1 X193.755 Y6.877 E.8862
G1 X193.221 Y6.877 E.01676
G1 X213.723 Y27.379 E.9099
G1 X213.723 Y27.913 E.01676
G1 X192.687 Y6.877 E.9336
G1 X192.153 Y6.877 E.01676
G1 X213.723 Y28.447 E.9573
G1 X213.723 Y28.98 E.01673
G1 X191.62 Y6.877 E.98096
G1 X191.086 Y6.877 E.01676
G1 X213.723 Y29.514 E1.00466
G1 X213.723 Y30.048 E.01676
G1 X190.552 Y6.877 E1.02835
G1 X190.018 Y6.877 E.01676
G1 X213.723 Y30.582 E1.05205
G1 X213.723 Y31.115 E.01673
G1 X189.485 Y6.877 E1.07571
G1 X188.951 Y6.877 E.01676
G1 X213.723 Y31.649 E1.09941
G1 X213.723 Y32.183 E.01676
G1 X188.417 Y6.877 E1.12311
G1 X187.883 Y6.877 E.01676
G1 X213.723 Y32.717 E1.14681
G1 X213.723 Y33.25 E.01673
G1 X187.35 Y6.877 E1.17046
G1 X186.816 Y6.877 E.01676
G1 X213.723 Y33.784 E1.19416
G1 X213.723 Y34.318 E.01676
G1 X186.282 Y6.877 E1.21786
G1 X185.748 Y6.877 E.01676
G1 X213.723 Y34.852 E1.24156
G1 X213.723 Y35.385 E.01673
G1 X185.215 Y6.877 E1.26522
G1 X184.681 Y6.877 E.01676
G1 X213.723 Y35.919 E1.28892
G1 X213.723 Y36.453 E.01676
G1 X184.147 Y6.877 E1.31262
G1 X183.613 Y6.877 E.01676
G1 X213.723 Y36.987 E1.33632
G1 X213.723 Y37.52 E.01673
G1 X183.08 Y6.877 E1.35997
G1 X182.546 Y6.877 E.01676
G1 X213.723 Y38.054 E1.38367
G1 X213.723 Y38.588 E.01676
G1 X182.012 Y6.877 E1.40737
G1 X181.478 Y6.877 E.01676
G1 X213.723 Y39.122 E1.43107
G1 X213.723 Y39.655 E.01673
G1 X180.945 Y6.877 E1.45472
G1 X180.411 Y6.877 E.01676
G1 X213.723 Y40.189 E1.47842
G1 X213.723 Y40.723 E.01676
G1 X179.877 Y6.877 E1.50212
G1 X179.343 Y6.877 E.01676
G1 X213.723 Y41.257 E1.52582
G1 X213.723 Y41.79 E.01673
G1 X178.81 Y6.877 E1.54948
G1 X178.276 Y6.877 E.01676
G1 X213.723 Y42.324 E1.57318
G1 X213.723 Y42.858 E.01676
G1 X177.742 Y6.877 E1.59688
G1 X177.208 Y6.877 E.01676
G1 X213.723 Y43.392 E1.62058
G1 X213.723 Y43.925 E.01673
G1 X176.675 Y6.877 E1.64423
G1 X176.141 Y6.877 E.01676
G1 X213.723 Y44.459 E1.66793
G1 X213.723 Y44.993 E.01676
G1 X175.607 Y6.877 E1.69163
G1 X175.073 Y6.877 E.01676
G1 X213.723 Y45.527 E1.71533
G1 X213.723 Y46.06 E.01673
G1 X174.54 Y6.877 E1.73899
G1 X174.006 Y6.877 E.01676
G1 X213.723 Y46.594 E1.76268
G1 X213.723 Y47.128 E.01676
G1 X173.472 Y6.877 E1.78638
G1 X172.938 Y6.877 E.01676
G1 X213.723 Y47.662 E1.81008
G1 X213.723 Y48.195 E.01673
G1 X172.405 Y6.877 E1.83374
G1 X171.871 Y6.877 E.01676
G1 X213.723 Y48.729 E1.85744
G1 X213.723 Y49.263 E.01676
G1 X171.337 Y6.877 E1.88114
G1 X170.803 Y6.877 E.01676
G1 X213.723 Y49.797 E1.90484
G1 X213.723 Y50.33 E.01673
G1 X170.27 Y6.877 E1.92849
G1 X169.736 Y6.877 E.01676
G1 X213.723 Y50.864 E1.95219
G1 X213.723 Y51.398 E.01676
G1 X169.202 Y6.877 E1.97589
G1 X168.669 Y6.877 E.01673
G1 X213.723 Y51.931 E1.99955
G1 X213.723 Y52.465 E.01676
G1 X168.135 Y6.877 E2.02325
G1 X167.601 Y6.877 E.01676
G1 X213.723 Y52.999 E2.04695
G1 X213.723 Y53.533 E.01676
G1 X167.067 Y6.877 E2.07065
G1 X166.534 Y6.877 E.01673
G1 X213.723 Y54.066 E2.0943
G1 X213.723 Y54.6 E.01676
G1 X166 Y6.877 E2.118
G1 X165.466 Y6.877 E.01676
G1 X213.723 Y55.134 E2.1417
G1 X213.723 Y55.668 E.01676
G1 X164.932 Y6.877 E2.1654
G1 X164.399 Y6.877 E.01673
G1 X213.723 Y56.201 E2.18905
G1 X213.723 Y56.735 E.01676
G1 X163.865 Y6.877 E2.21275
G1 X163.331 Y6.877 E.01676
G1 X213.723 Y57.269 E2.23645
G1 X213.723 Y57.803 E.01676
G1 X162.797 Y6.877 E2.26015
G1 X162.264 Y6.877 E.01673
G1 X213.723 Y58.336 E2.28381
G1 X213.723 Y58.87 E.01676
G1 X161.73 Y6.877 E2.30751
G1 X161.196 Y6.877 E.01676
G1 X213.723 Y59.404 E2.33121
G1 X213.723 Y59.938 E.01676
G1 X160.662 Y6.877 E2.35491
G1 X160.129 Y6.877 E.01673
G1 X213.723 Y60.471 E2.37856
G1 X213.723 Y61.005 E.01676
G1 X159.595 Y6.877 E2.40226
G1 X159.061 Y6.877 E.01676
G1 X213.723 Y61.539 E2.42596
G1 X213.723 Y62.073 E.01676
G1 X158.527 Y6.877 E2.44966
G1 X157.994 Y6.877 E.01673
G1 X213.723 Y62.606 E2.47332
G1 X213.723 Y63.14 E.01676
G1 X157.46 Y6.877 E2.49701
G1 X156.926 Y6.877 E.01676
G1 X213.723 Y63.674 E2.52071
G1 X213.723 Y64.208 E.01676
G1 X156.392 Y6.877 E2.54441
G1 X155.859 Y6.877 E.01673
G1 X213.723 Y64.741 E2.56807
G1 X213.723 Y65.275 E.01676
G1 X155.325 Y6.877 E2.59177
G1 X154.791 Y6.877 E.01676
G1 X213.723 Y65.809 E2.61547
G1 X213.723 Y66.343 E.01676
G1 X154.257 Y6.877 E2.63917
G1 X153.724 Y6.877 E.01673
G1 X213.723 Y66.876 E2.66282
G1 X213.723 Y67.41 E.01676
G1 X153.19 Y6.877 E2.68652
G1 X152.656 Y6.877 E.01676
G1 X213.723 Y67.944 E2.71022
G1 X213.723 Y68.478 E.01676
G1 X152.122 Y6.877 E2.73392
G1 X151.589 Y6.877 E.01673
G1 X213.723 Y69.011 E2.75758
G1 X213.723 Y69.545 E.01676
G1 X151.055 Y6.877 E2.78128
G1 X150.521 Y6.877 E.01676
G1 X213.723 Y70.079 E2.80498
G1 X213.723 Y70.613 E.01676
G1 X149.987 Y6.877 E2.82867
G1 X149.454 Y6.877 E.01673
G1 X213.723 Y71.146 E2.85233
G1 X213.723 Y71.68 E.01676
G1 X148.92 Y6.877 E2.87603
G1 X148.386 Y6.877 E.01676
G1 X213.723 Y72.214 E2.89973
G1 X213.723 Y72.748 E.01676
G1 X147.852 Y6.877 E2.92343
G1 X147.319 Y6.877 E.01673
G1 X213.723 Y73.281 E2.94708
G1 X213.723 Y73.815 E.01676
G1 X146.785 Y6.877 E2.97078
G1 X146.251 Y6.877 E.01676
G1 X213.723 Y74.349 E2.99448
G1 X213.723 Y74.883 E.01676
G1 X145.717 Y6.877 E3.01818
G1 X145.184 Y6.877 E.01673
G1 X213.723 Y75.416 E3.04184
G1 X213.723 Y75.95 E.01676
G1 X144.65 Y6.877 E3.06554
G1 X144.116 Y6.877 E.01676
G1 X213.723 Y76.484 E3.08924
G1 X213.723 Y77.018 E.01676
G1 X143.582 Y6.877 E3.11294
G1 X143.049 Y6.877 E.01673
G1 X213.723 Y77.551 E3.13659
G1 X213.723 Y78.085 E.01676
G1 X142.515 Y6.877 E3.16029
G1 X141.981 Y6.877 E.01676
G1 X213.723 Y78.619 E3.18399
G1 X213.723 Y79.153 E.01676
G1 X141.447 Y6.877 E3.20769
G1 X140.914 Y6.877 E.01673
G1 X213.723 Y79.686 E3.23134
G1 X213.723 Y80.22 E.01676
G1 X140.38 Y6.877 E3.25504
G1 X139.846 Y6.877 E.01676
G1 X213.723 Y80.754 E3.27874
G1 X213.723 Y81.287 E.01673
G1 X139.313 Y6.877 E3.3024
G1 X138.779 Y6.877 E.01676
G1 X213.723 Y81.821 E3.3261
G1 X213.723 Y82.355 E.01676
G1 X138.245 Y6.877 E3.3498
G1 X137.711 Y6.877 E.01676
G1 X213.723 Y82.889 E3.3735
G1 X213.723 Y83.422 E.01673
G1 X137.178 Y6.877 E3.39715
G1 X136.644 Y6.877 E.01676
G1 X213.723 Y83.956 E3.42085
G1 X213.723 Y84.49 E.01676
G1 X136.11 Y6.877 E3.44455
G1 X135.576 Y6.877 E.01676
G1 X213.723 Y85.024 E3.46825
G1 X213.723 Y85.557 E.01673
G1 X135.043 Y6.877 E3.49191
G1 X134.509 Y6.877 E.01676
G1 X213.723 Y86.091 E3.51561
G1 X213.723 Y86.625 E.01676
G1 X133.975 Y6.877 E3.5393
G1 X133.441 Y6.877 E.01676
G1 X213.723 Y87.159 E3.563
G1 X213.723 Y87.692 E.01673
G1 X132.908 Y6.877 E3.58666
G1 X132.374 Y6.877 E.01676
G1 X213.723 Y88.226 E3.61036
G1 X213.723 Y88.76 E.01676
G1 X131.84 Y6.877 E3.63406
G1 X131.306 Y6.877 E.01676
G1 X213.723 Y89.294 E3.65776
G1 X213.723 Y89.827 E.01673
G1 X130.773 Y6.877 E3.68141
G1 X130.239 Y6.877 E.01676
G1 X213.723 Y90.361 E3.70511
G1 X213.723 Y90.895 E.01676
G1 X129.705 Y6.877 E3.72881
G1 X129.171 Y6.877 E.01676
G1 X213.723 Y91.429 E3.75251
G1 X213.723 Y91.962 E.01673
G1 X128.638 Y6.877 E3.77617
G1 X128.104 Y6.877 E.01676
G1 X213.723 Y92.496 E3.79987
G1 X213.723 Y93.03 E.01676
G1 X127.57 Y6.877 E3.82357
G1 X127.036 Y6.877 E.01676
G1 X213.723 Y93.564 E3.84727
G1 X213.723 Y94.097 E.01673
G1 X126.503 Y6.877 E3.87092
G1 X125.969 Y6.877 E.01676
G1 X213.723 Y94.631 E3.89462
G1 X213.723 Y95.165 E.01676
G1 X125.435 Y6.877 E3.91832
G1 X124.901 Y6.877 E.01676
G1 X213.723 Y95.699 E3.94202
G1 X213.723 Y96.232 E.01673
G1 X124.368 Y6.877 E3.96567
G1 X123.834 Y6.877 E.01676
G1 X213.723 Y96.766 E3.98937
G1 X213.723 Y97.3 E.01676
G1 X123.3 Y6.877 E4.01307
G1 X122.766 Y6.877 E.01676
G1 X213.723 Y97.834 E4.03677
G1 X213.723 Y98.367 E.01673
G1 X122.233 Y6.877 E4.06043
G1 X121.699 Y6.877 E.01676
G1 X213.723 Y98.901 E4.08413
G1 X213.723 Y99.435 E.01676
G1 X121.165 Y6.877 E4.10783
G1 X120.631 Y6.877 E.01676
G1 X213.723 Y99.969 E4.13153
G1 X213.723 Y100.123 E.00483
G1 X213.343 Y100.123 E.01193
G1 X120.098 Y6.877 E4.13834
G1 X119.564 Y6.877 E.01676
G1 X212.81 Y100.123 E4.13836
G1 X212.276 Y100.124 E.01676
G1 X119.03 Y6.877 E4.13838
G1 X118.496 Y6.877 E.01676
G1 X211.743 Y100.124 E4.13841
G1 X211.209 Y100.124 E.01676
G1 X117.963 Y6.877 E4.13838
G1 X117.429 Y6.877 E.01676
G1 X210.676 Y100.125 E4.13843
G1 X210.143 Y100.125 E.01673
G1 X116.895 Y6.877 E4.13845
G1 X116.361 Y6.877 E.01676
G1 X209.609 Y100.125 E4.13845
G1 X209.076 Y100.126 E.01673
G1 X115.828 Y6.877 E4.13847
G1 X115.294 Y6.877 E.01676
G1 X208.542 Y100.126 E4.13847
G1 X208.009 Y100.126 E.01673
G1 X114.76 Y6.877 E4.13849
G1 X114.226 Y6.877 E.01676
G1 X207.476 Y100.127 E4.13854
G1 X206.942 Y100.127 E.01676
G1 X113.693 Y6.877 E4.13852
G1 X113.159 Y6.877 E.01676
G1 X206.409 Y100.127 E4.13854
G1 X205.875 Y100.128 E.01676
G1 X112.625 Y6.877 E4.13856
G1 X112.092 Y6.877 E.01673
G1 X205.342 Y100.128 E4.13856
G1 X204.809 Y100.128 E.01673
G1 X111.558 Y6.877 E4.13858
G1 X111.024 Y6.877 E.01676
G1 X204.275 Y100.128 E4.13858
G1 X203.742 Y100.129 E.01673
G1 X110.49 Y6.877 E4.13863
G1 X109.957 Y6.877 E.01673
G1 X203.208 Y100.129 E4.13861
G1 X202.675 Y100.129 E.01673
G1 X109.423 Y6.877 E4.13863
G1 X108.889 Y6.877 E.01676
G1 X202.141 Y100.13 E4.13865
G1 X201.608 Y100.13 E.01673
G1 X108.355 Y6.877 E4.13867
G1 X107.822 Y6.877 E.01673
G1 X201.075 Y100.13 E4.13867
G1 X200.541 Y100.131 E.01676
G1 X107.288 Y6.877 E4.13869
G1 X106.754 Y6.877 E.01676
G1 X200.008 Y100.131 E4.13872
G1 X199.474 Y100.131 E.01676
G1 X106.22 Y6.877 E4.13872
G1 X105.687 Y6.877 E.01673
G1 X198.941 Y100.132 E4.13874
G1 X198.408 Y100.132 E.01673
G1 X105.153 Y6.877 E4.13876
G1 X104.619 Y6.877 E.01676
G1 X197.874 Y100.132 E4.13876
G1 X197.341 Y100.133 E.01673
G1 X104.085 Y6.877 E4.13881
G1 X103.552 Y6.877 E.01673
G1 X196.807 Y100.133 E4.13878
G1 X196.274 Y100.133 E.01673
G1 X103.018 Y6.877 E4.13881
G1 X102.484 Y6.877 E.01676
G1 X195.74 Y100.134 E4.13883
G1 X195.207 Y100.134 E.01673
G1 X101.95 Y6.877 E4.13885
G1 X101.417 Y6.877 E.01673
G1 X194.674 Y100.134 E4.13885
G1 X194.427 Y100.135 E.00775
G1 X194.214 Y100.208 E.00707
G1 X100.883 Y6.877 E4.14213
G1 X100.349 Y6.877 E.01676
G1 X193.919 Y100.447 E4.15274
G1 X193.81 Y100.598 E.00584
G1 X193.744 Y100.806 E.00685
G1 X99.815 Y6.877 E4.16867
G1 X99.282 Y6.877 E.01673
G1 X193.732 Y101.328 E4.19182
G1 X193.731 Y101.86 E.0167
G1 X98.748 Y6.877 E4.21545
G1 X98.214 Y6.877 E.01676
G1 X193.73 Y102.393 E4.23911
G1 X193.729 Y102.926 E.01673
G1 X97.68 Y6.877 E4.26276
G1 X97.147 Y6.877 E.01673
G1 X193.898 Y103.628 E4.29392
;WIPE_START
G1 F7200
G1 X191.516 Y101.246 E-.8
;WIPE_END
G1 X213.124 Y104.708 F9000
G1 E.8 F1800
G1 F1200
G1 X213.723 Y105.306 E.02656
G1 X213.723 Y105.84 E.01676
G1 X212.76 Y104.877 E.04274
G1 X212.226 Y104.877 E.01676
G1 X213.723 Y106.374 E.06644
G1 X213.723 Y106.907 E.01673
G1 X211.693 Y104.877 E.09009
G1 X211.159 Y104.877 E.01676
G1 X213.723 Y107.441 E.11379
G1 X213.723 Y107.975 E.01676
G1 X210.625 Y104.877 E.13749
G1 X210.092 Y104.877 E.01673
G1 X213.723 Y108.509 E.16117
G1 X213.723 Y109.042 E.01673
G1 X209.558 Y104.877 E.18485
G1 X209.024 Y104.877 E.01676
G1 X213.723 Y109.576 E.20855
G1 X213.723 Y110.11 E.01676
G1 X208.49 Y104.877 E.23225
G1 X207.957 Y104.877 E.01673
G1 X213.723 Y110.643 E.2559
G1 X213.723 Y111.177 E.01676
G1 X207.423 Y104.877 E.2796
G1 X206.889 Y104.877 E.01676
G1 X213.723 Y111.711 E.3033
G1 X213.723 Y112.245 E.01676
G1 X206.355 Y104.877 E.327
G1 X205.822 Y104.877 E.01673
G1 X213.723 Y112.778 E.35066
G1 X213.723 Y113.312 E.01676
G1 X205.288 Y104.877 E.37435
G1 X204.754 Y104.877 E.01676
